X:1
T:Lost but Found
T:Lost but Found
T:John Robson Sweney
T:Frances Jane (Fanny) Crosby, 1880
T:Public Domain Courtesy of the Cyber Hymnal™
T:Public Domain Courtesy of the Cyber Hymnal™
C:John Robson Sweney
Z:Public Domain
Z:Courtesy of the Cyber Hymnal™
%%score ( 1 2 ) ( 3 4 )
L:1/8
Q:1/4=95
M:4/4
K:A
V:1 treble 
V:2 treble 
V:3 bass 
V:4 bass 
V:1
 [CE][CE] | [CA][CA][CA][CA] [Ec]2 [Ae][=Ge] | [Fd][Fd][DF][DF] [DB]2 [DB][FA] | %3
w: 1.~Oh, the|joy that fills my heart! Oh, the|grate- ful tears that start, When I|
w: 2.~Lost but|found, oh, won- drous thought! To His|fold in mer- cy brought; Saved by|
w: 3.~Lost but|found! I now can sing Vic- tory|through my Sav- ior king, Vic- tory|
w: 4.~Oh that|all the world would prove How a|par- doning God can love, How He|
 [EG]4- [EG][Ed][DF][DG] | (A4 E2) [CE][CE] | [CA][CA][CA][CA] [Ec]2 [Ae][=Ge] | %6
w: think * of Je- sus’|love! * How He|came that He might bear All my|
w: grace, * His grace di-|vine. * Heir with|Him of bliss un- told, Soon His|
w: ev- * ery day and|hour; * Vic- tory|still will be my song When I|
w: waits * for all who|come! * O that|all the world might see What His|
 [Fd][Fd][DF][DF] [DB]2 [DB][FA] | [EG]4- [EG][Ed][DF][DG] | A6 ||"^Refrain" A[_GA] | %10
w: weight of sin and care, How He|came * from Heav’n a-|bove.||
w: glo- ry I’ll be- hold, What a|bless- * èd hope is|mine!|End- less|
w: join the ran- somed throng, Vic- tory|o’er * the temp- ter’s|power.||
w: grace hath done for me! How He|wel- * comes wan- derers|home.||
 [Fd]6 [DF][Fd] | [Ec]6 [EA][EA] | [EB]4- [EB][EB][EA][EB] | [Ec]6 A[=GA] | %14
w: ||||
w: praise, end- less|praise To the|Lord * my soul shall|raise; Lost but|
w: ||||
w: ||||
 [Fd]4- [Fd][Fd][DF][Fd] | [Ec]6 [EA][EA] | [EB]4- [EB][Ed][DF][DG] | A6 |] %18
w: ||||
w: found, * O hap- py|strain! Dead but|now * I live a-|gain.|
w: ||||
w: ||||
V:2
 x2 | x8 | x8 | x8 | C6 x2 | x8 | x8 | x8 | (CCDD C2) || A x | x8 | x8 | x8 | x6 A x | x8 | x8 | %16
 x8 | (C2 DD C2) |] %18
V:3
 [A,,A,][A,,A,] | [A,,E,][A,,E,][A,,E,][A,,E,] [A,,A,]2 [C,A,][C,A,] | %2
w: ~ ~|~ ~ ~ ~ ~ ~ ~|
 [D,A,][D,A,][D,A,][D,A,] [D,F,]2 [D,F,][D,B,] | [E,B,]2 ([E,B,][E,B,] [E,B,])[E,B,][E,A,]E, | %4
w: ~ ~ ~ ~ ~ ~ ~|~ ~ * * ~ ~ ~|
 ([A,,E,]2 [A,,E,][A,,E,] [A,,A,]2) [A,,A,][A,,A,] | %5
w: ~ * * * ~ ~|
 [A,,E,][A,,E,][A,,E,][A,,E,] [A,,A,]2 [C,A,][C,A,] | %6
w: ~ ~ ~ ~ ~ ~ ~|
 [D,A,][D,A,][D,A,][D,A,] [D,F,]2 [D,F,][D,B,] | ([E,B,]2 [E,B,][E,B,] [E,B,]2) [E,A,]E, | %8
w: ~ ~ ~ ~ ~ ~ ~|~ * * * ~ ~|
 ([A,,E,][A,,E,][A,,F,][A,,F,] [A,,E,]2) || z2 | z2 ([D,A,][D,A,] [D,A,]2) z2 | %11
w: ~ * * * *||~ * *|
 z2 ([A,,A,][A,,A,] [A,,A,]2) [C,A,][C,A,] | [E,G,]2 [E,G,][E,G,] [E,G,][E,D][E,C][E,G,] | %13
w: ~ * * ~ ~|~ To the Lord ~ ~ ~|
 A,A,[E,A,][C,A,] [A,,A,]2 z2 | z2 [D,A,][D,A,] [D,A,]2 z2 | %15
w: ~ my soul shall raise!|Losst but found,|
 z [A,,A,][A,,A,][A,,A,] [A,,A,]2 [C,A,][C,A,] | [E,G,][E,G,][E,G,][E,G,] [E,G,][E,B,][E,A,]E, | %17
w: O hap- py strain! Dead but|now I live, but now I live a-|
 E,2 F,F, E,2 |] %18
w: gain, live a- gain|
V:4
 x2 | x8 | x8 | x7 E, | x8 | x8 | x8 | x7 E, | x6 || x2 | x8 | x8 | x8 | A,A, x6 | x8 | x8 | %16
 x7 E, | A,,6 |] %18

